svgs/sharp-regular/square-right.svg

<svg xmlns="http://www.w3.org/2000/svg" viewBox="0 0 448 512"><!--! Font Awesome Pro 6.6.0 by @fontawesome - https://fontawesome.com License - https://fontawesome.com/license (Commercial License) Copyright 2024 Fonticons, Inc. --><path d="M400 80L48 80l0 352 352 0 0-352zm48-48l0 48 0 352 0 48-48 0L48 480 0 480l0-48L0 80 0 32l48 0 352 0 48 0zM256 144l96 112L256 368l-32 0 0-64L96 304l0-96 128 0 0-64 32 0z"/></svg>

<svg xmlns="http://www.w3.org/2000/svg" viewBox="0 0 448 512"><!--! Font Awesome Pro 6.4.0 by @fontawesome - https://fontawesome.com License - https://fontawesome.com/license (Commercial License) Copyright 2023 Fonticons, Inc. --><path d="M400 80L48 80l0 352 352 0 0-352zm48-48V80l0 352v48H400L48 480H0V432 80 32H48 400h48zM256 144l96 112L256 368H224V304H96l0-96H224V144h32z"/></svg>
